X: 7
T:Congress Reel, The
M:4/4
L:1/8
Q:180
N:Tune guitar with low E down to D
D:Danny Carnahan and Robin Petrie "Two For The Road" CityFolk CFR010
K:A
T:Guitar tuning DADGBe
e|"A"e2AG- ABcd|ea a/2a/2a ge d/2d/2d|
eA A/2A/2A eA A/2A/2A|"G"BG G/2G/2G BGBd-|!
"A"eA AG- ABcd|ea a/2a/2a ge dB-|
"C"c2cd e-g ed|"G"cABG-"A"A2-A::!
d-| "A"eaag a-bag|eaag e-g d2|
"D"e-g d2 e-g d2|e-a aa ge dd-|!
"A"ea ag a-b ag|eaag e-g ed|
"C"c2cd e-g ed|"G"cABG-"A"A2-A:||
